X: 11151
T: HAYDN'S CELEBRATED MOVEMENT
%R: march
B: "Edinburgh Repository of Music" v.1 p.115
F: http://digital.nls.uk/special-collections-of-printed-music/pageturner.cfm?id=87776133
Z: 2015 John Chambers <jc:trillian.mit.edu>
M: 2/4
L: 1/16
K: A
E>A |\
.c2.c2.B2.B2 | (A4 E2) (A>c) |\
e2e2 f2f2 | d6 (E>B) |\
.d2.d2 .c2.c2 | (B4 F2) d>B |\
A2A2 B2B2 | (B4 c2) :|
|: (E>c) |\
.e2.e2.d2.d2 | (c4 F2)ec |\
.d2.d2.f2.f2 | (A4 G2) E>B |\
.d2.d2.B2.B2 | e3a c'2(e>c) |\
B2B2 G2G2 | A4 "_Fine."z2 H|][K:=f=c=g]
K: C
EA |\
c4 {c}B2AB | A4 z2Ac |\
e4 ({e}d2cd) | c4 z2Ac |\
f4 {f}e2de | d6 ef |\
g2e2f2B2 | B4 c2 :|
|: (ce) |\
g4 (d^cBc) | d4 z2(de) |\
f4 ({_B}A2^GA) | ^G4 z2(Ee) |\
^d4 ({e}=d2cd) | c4 z2c2 |\
(B3c/d/) A2^G2 | {G}"_D.C.Majore"A6 |]

%%sep 2 1 500
%%sep 1 1 500

